Obsidian-SemiLight/actions/16s/filename-bpm-amarok.svg

<svg viewBox="0 0 16 16" xmlns="http://www.w3.org/2000/svg"><path d="m8 2a6 6.0000086 0 0 0 -6 6 6 6.0000086 0 0 0 6 6 6 6.0000086 0 0 0 6-6 6 6.0000086 0 0 0 -6-6zm0 1a5.0000014 5.0000086 0 0 1 5 5 5.0000014 5.0000086 0 0 1 -5 5 5.0000014 5.0000086 0 0 1 -5-5 5.0000014 5.0000086 0 0 1 5-5zm0 1a4 4 0 0 0 -2.5585938.9277344l.640625.7695312a3 3 0 0 1 1.9179688-.6972656 3 3 0 0 1 3 3h1a4 4 0 0 0 -4-4zm1 2-1.6015625 3.203125a1 1 0 0 0 -.3984375.796875 1 1 0 0 0 1 1 1 1 0 0 0 1-1 1 1 0 0 0 -.2519531-.6601562zm-4.46875.0175781a4 4 0 0 0 -.53125 1.9824219h1a3 3 0 0 1 .3984375-1.4863281z" fill="#4d4d4d"/></svg>

<svg xmlns="http://www.w3.org/2000/svg" viewBox="0 0 16 16">
  <defs id="defs3051">
    <style type="text/css" id="current-color-scheme">
      .ColorScheme-Text {
        color:#4d4d4d;
      }
      </style>
  </defs>
 <path style="fill:currentColor;fill-opacity:1;stroke:none" 
     d="M 8 2 A 6 6.0000086 0 0 0 2 8 A 6 6.0000086 0 0 0 8 14 A 6 6.0000086 0 0 0 14 8 A 6 6.0000086 0 0 0 8 2 z M 8 3 A 5.0000014 5.0000086 0 0 1 13 8 A 5.0000014 5.0000086 0 0 1 8 13 A 5.0000014 5.0000086 0 0 1 3 8 A 5.0000014 5.0000086 0 0 1 8 3 z M 8 4 A 4 4 0 0 0 5.4414062 4.9277344 L 6.0820312 5.6972656 A 3 3 0 0 1 8 5 A 3 3 0 0 1 11 8 L 12 8 A 4 4 0 0 0 8 4 z M 9 6 L 7.3984375 9.203125 A 1 1 0 0 0 7 10 A 1 1 0 0 0 8 11 A 1 1 0 0 0 9 10 A 1 1 0 0 0 8.7480469 9.3398438 L 9 6 z M 4.53125 6.0175781 A 4 4 0 0 0 4 8 L 5 8 A 3 3 0 0 1 5.3984375 6.5136719 L 4.53125 6.0175781 z "
     class="ColorScheme-Text"
     />
</svg>
